X:343
T:Ringdans efter Enninger 
T:("Pileknäckaren", SvL Skåne nr. 541)
S:efter John Enninger
R:Ringdans
B:John Enninger
B:Svenska Låtar Skåne
B:Jämför [[http://www.smus.se/earkiv/fmk/browselarge.php?lang=sw&katalogid=Ske+30&bildnr=00086|SMUS - katalog Ske30 bild 86]] och [[http://www.smus.se/earkiv/fmk/browselarge.php?lang=sw&katalogid=Ske+30&bildnr=00087|bild 87]]
Z:Patrik Månsson, 8/7 2008
O:Skåne
N:Enninger hade låten efter [[Johan Jacob Bruun|J. Bruun]]
M:2/4
L:1/16
Q:1/4=90
K:G
DGBA G2G2 | DGBA G2G2 |
w:Ja' har va't i Hö-ja, ja' har va't i Starr-by, 
EAcB A2AG |F2EF G2 z2 |
w:ja' har va't i Käll-na å Gry-de-vads kru. 
DGBA G2G2 | DGBA G2G2 |
w:Dä-r fick vi kaf-fe, dä-r fick vi gö-ka, 
EAcB A2AG | F2EF G2Bc |
w:dä-r fick vi pi-le-e-knäck-a-re sju. Ä' de'
|: d2B2 B2Bc | d2B2 B2AB | 
w:lik' nån-ting, ä' de' lik nån-ting, a-tt
c2cB A2AG |[1 F2EF G2Bc  :|[2 F2EF G2 z2 ]| 
w:sju pi-le-knäc-ka-re satt i go' ro. Ä' de' satt i go' ro'
|: G2B2 d2f2 | g2ee e2d2 | c2c2 B2G2 | A2F2 G2 z2 :|
w:Ja' har druc-kit sju pi-le-knäck-ar, ja' kan dric-ka sju än-nu
(:musicend:)
Melodien dansades som polka, men har ursprungligen använts som fyrtur eller anglais. En annan textvariant, meddelad av [[Personer/Hanna Pehr Olsson]] i [[Platser/Kvärlöv]] :[[<<]][[<<]]
"Ja' har va't i Hallarp, ja' har va't i Hyselt, ja' har va't i Fagerhult å Bygged me'.[[<<]]
Där fick vi äpple, där fick vi nötter, där fick vi kaffe å brännevin te'."[[<<]][[<<]]

Pileknäckare var en blandning av lika mycket rom och madeira. Dunder pileknäckare bestod av två delar rom och en del madeira, enligt uppgift av riksdagsmannen [[Personer/Nils Persson]] i [[Platser/Reslöv]]. (J.E.)

(:music:)
